assets/img/premium.svg

<?xml version="1.0" encoding="UTF-8" standalone="no"?>
<svg
   width="56"
   height="14"
   viewBox="0 0 56 14"
   fill="none"
   version="1.1"
   id="svg25"
   sodipodi:docname="471eb3f02ac471ff7ebb0224461a8556.svg"
   xmlns:inkscape="http://www.inkscape.org/namespaces/inkscape"
   xmlns:sodipodi="http://sodipodi.sourceforge.net/DTD/sodipodi-0.dtd"
   xmlns="http://www.w3.org/2000/svg"
   xmlns:svg="http://www.w3.org/2000/svg">
  <sodipodi:namedview
     id="namedview27"
     pagecolor="#ffffff"
     bordercolor="#666666"
     borderopacity="1.0"
     inkscape:pageshadow="2"
     inkscape:pageopacity="0.0"
     inkscape:pagecheckerboard="0" />
  <rect
     width="56"
     height="14"
     rx="4"
     fill="#e5ac1a"
     id="rect2"
     x="0"
     y="0" />
  <g
     clip-path="url(#clip0_3541_3928)"
     id="g18">
    <path
       d="M 9.89231,4.22549 C 9.54389,4.07843 9.12579,4 8.64796,4 H 6.3086 C 6.219,4 6.14932,4.02941 6.08959,4.08824 6.02986,4.14706 6,4.21569 6,4.30392 V 9.68627 C 6,9.77451 6.02986,9.85294 6.08959,9.90196 6.14932,9.96078 6.219,9.9902 6.3086,9.9902 h 1.12488 c 0.0896,0 0.16923,-0.02942 0.21901,-0.07843 C 7.72217,9.85294 7.75204,9.77451 7.75204,9.68627 V 7.97059 h 0.89592 c 0.47783,0 0.88598,-0.06863 1.24435,-0.20588 C 10.2507,7.62745 10.5394,7.40196 10.7385,7.11765 10.9475,6.82353 11.0471,6.45098 11.0471,6.0098 11.0471,5.56863 10.9475,5.18627 10.7385,4.88235 10.5394,4.58824 10.2507,4.36275 9.89231,4.21569 Z M 9.29502,6 c 0,0.21569 -0.05973,0.37255 -0.17918,0.48039 C 8.99638,6.58824 8.82715,6.63725 8.6181,6.63725 H 7.74208 V 5.35294 H 8.6181 c 0.24887,0 0.42805,0.05882 0.5276,0.17647 C 9.2552,5.65686 9.30498,5.80392 9.30498,6 Z"
       fill="#feffff"
       id="path4" />
    <path
       d="m 16.5818,7.63725 c 0.2788,-0.14705 0.5177,-0.34313 0.6969,-0.59803 0.209,-0.28432 0.3086,-0.63726 0.3086,-1.04902 0,-0.62745 -0.229,-1.12745 -0.667,-1.47059 C 16.4922,4.17647 15.895,4 15.1583,4 h -2.2796 c -0.0896,0 -0.1593,0.02941 -0.219,0.08824 -0.0598,0.05882 -0.0896,0.12745 -0.0896,0.21568 v 5.38235 c 0,0.08824 0.0298,0.16667 0.0896,0.21569 0.0597,0.05882 0.1294,0.08824 0.219,0.08824 h 1.0751 c 0.0896,0 0.1692,-0.02942 0.219,-0.08824 0.0597,-0.05882 0.0896,-0.12745 0.0896,-0.21569 V 7.94118 h 0.6968 l 0.9258,1.7647 c 0.0299,0.04902 0.0697,0.10785 0.1294,0.17647 0.0697,0.06863 0.1692,0.10785 0.3086,0.10785 h 1.105 c 0.0796,0 0.1394,-0.02942 0.1991,-0.07843 0.0597,-0.05883 0.0896,-0.12746 0.0896,-0.19608 0,-0.03922 -0.01,-0.08824 -0.0398,-0.13726 L 16.5719,7.62745 Z M 15.8352,5.97059 c 0,0.19608 -0.0597,0.34314 -0.1692,0.45098 -0.1095,0.10784 -0.2787,0.16667 -0.5177,0.16667 h -0.866 v -1.2353 h 0.866 c 0.239,0 0.4181,0.05882 0.5177,0.16667 0.1095,0.11764 0.1692,0.2647 0.1692,0.45098 z"
       fill="#feffff"
       id="path6" />
    <path
       d="m 23.5801,8.60784 h -2.638 V 7.64706 h 2.3891 c 0.0896,0 0.1693,-0.02941 0.229,-0.08824 C 23.6199,7.5 23.6398,7.42157 23.6398,7.34314 V 6.61765 C 23.6398,6.52941 23.61,6.46078 23.5602,6.40196 23.5005,6.33333 23.4208,6.30392 23.3312,6.30392 H 20.9421 V 5.38235 h 2.5683 c 0.0896,0 0.1593,-0.02941 0.219,-0.08823 C 23.7892,5.23529 23.819,5.16667 23.819,5.07843 V 4.30392 C 23.819,4.21569 23.7892,4.14706 23.7294,4.08824 23.6697,4.02941 23.6,4 23.5104,4 h -3.9022 c -0.0896,0 -0.1593,0.02941 -0.219,0.08824 -0.0598,0.05882 -0.0896,0.12745 -0.0896,0.21568 v 5.38235 c 0,0.08824 0.0298,0.16667 0.0896,0.21569 0.0597,0.05882 0.1294,0.08824 0.219,0.08824 h 3.9719 c 0.0896,0 0.1593,-0.02942 0.219,-0.08824 0.0597,-0.05882 0.0896,-0.12745 0.0896,-0.21569 v -0.7745 c 0,-0.08824 -0.0299,-0.15687 -0.0896,-0.21569 -0.0597,-0.05883 -0.1294,-0.08824 -0.219,-0.08824 z"
       fill="#feffff"
       id="path8" />
    <path
       d="M 31.2054,4 H 30.3095 C 30.19,4 30.0904,4.03922 30.0208,4.10784 29.9809,4.15686 29.9411,4.19608 29.9212,4.23529 L 28.5375,6.69608 27.1638,4.2451 c 0,0 -0.0598,-0.08824 -0.1096,-0.13726 C 26.9945,4.03922 26.895,4 26.7755,4 H 25.8696 C 25.79,4 25.7203,4.02941 25.6506,4.08824 25.5909,4.14706 25.561,4.21569 25.561,4.30392 v 5.38235 c 0,0.08824 0.0299,0.16667 0.0896,0.2255 0.0598,0.05882 0.1394,0.07843 0.219,0.07843 h 1.0055 c 0.0896,0 0.1692,-0.02942 0.219,-0.08824 0.0597,-0.05882 0.0896,-0.12745 0.0896,-0.21569 V 6.97059 l 0.7565,1.39215 c 0.0299,0.05883 0.0797,0.11765 0.1294,0.15687 0.0598,0.05882 0.1494,0.07843 0.2489,0.07843 h 0.438 c 0.0996,0 0.1892,-0.02941 0.2489,-0.07843 0.0597,-0.04902 0.0995,-0.10785 0.1194,-0.15687 l 0.7566,-1.39215 v 2.71568 c 0,0.08824 0.0299,0.16667 0.0896,0.2255 0.0597,0.05882 0.1394,0.07843 0.2289,0.07843 h 0.9955 c 0.0896,0 0.1693,-0.02942 0.219,-0.07843 0.0697,-0.05883 0.0996,-0.13726 0.0996,-0.2255 V 4.30392 C 31.514,4.21569 31.4841,4.13725 31.4144,4.08824 31.3547,4.02941 31.285,4 31.1954,4 Z"
       fill="#feffff"
       id="path10" />
    <path
       d="m 34.8488,4 h -1.1249 c -0.0896,0 -0.1693,0.02941 -0.219,0.08824 -0.0598,0.05882 -0.0896,0.12745 -0.0896,0.21568 v 5.38235 c 0,0.08824 0.0298,0.16667 0.0896,0.21569 0.0597,0.05882 0.1294,0.08824 0.219,0.08824 h 1.1249 c 0.0896,0 0.1692,-0.02942 0.219,-0.08824 0.0597,-0.05882 0.0896,-0.12745 0.0896,-0.21569 V 4.30392 c 0,-0.08823 -0.0299,-0.15686 -0.0896,-0.21568 C 35.008,4.02941 34.9384,4 34.8488,4 Z"
       fill="#feffff"
       id="path12" />
    <path
       d="m 41.8969,4 h -1.0851 c -0.0796,0 -0.1493,0.02941 -0.219,0.08824 -0.0597,0.05882 -0.0896,0.12745 -0.0896,0.21568 v 3.32353 c 0,0.32353 -0.0796,0.56863 -0.2389,0.73529 -0.1593,0.15687 -0.3683,0.2353 -0.657,0.2353 -0.2887,0 -0.5177,-0.07843 -0.667,-0.2353 C 38.781,8.20588 38.7114,7.95098 38.7114,7.62745 V 4.30392 c 0,-0.08823 -0.0299,-0.15686 -0.0896,-0.21568 C 38.562,4.02941 38.4923,4 38.4028,4 H 37.3276 C 37.238,4 37.1584,4.02941 37.1086,4.08824 37.0489,4.14706 37.019,4.21569 37.019,4.30392 v 3.33333 c 0,0.52942 0.1095,0.9804 0.3186,1.33334 0.219,0.34314 0.5276,0.60784 0.9158,0.78431 C 38.6417,9.92157 39.0996,10 39.6172,10 40.1349,10 40.5928,9.92157 40.981,9.7549 41.3693,9.58824 41.6779,9.32353 41.8969,8.97059 42.1159,8.61765 42.2154,8.16667 42.2154,7.63725 V 4.30392 c 0,-0.08823 -0.0298,-0.16667 -0.0995,-0.21568 C 42.0561,4.02941 41.9865,4 41.9068,4 Z"
       fill="#feffff"
       id="path14" />
    <path
       d="M 49.9005,4.08824 C 49.8407,4.02941 49.771,4 49.6815,4 h -0.896 C 48.6561,4 48.5665,4.03922 48.5068,4.10784 48.457,4.15686 48.4272,4.19608 48.4072,4.23529 L 47.0235,6.69608 45.6398,4.2451 c 0,0 -0.0597,-0.08824 -0.1095,-0.13726 C 45.4706,4.03922 45.371,4 45.2516,4 h -0.9059 c -0.0796,0 -0.1593,0.02941 -0.219,0.08824 -0.0597,0.05882 -0.0896,0.12745 -0.0896,0.21568 v 5.38235 c 0,0.08824 0.0299,0.16667 0.0896,0.2255 0.0597,0.05882 0.1394,0.07843 0.219,0.07843 h 1.0054 c 0.0896,0 0.1693,-0.02942 0.219,-0.08824 0.0598,-0.05882 0.0896,-0.12745 0.0896,-0.21569 V 6.97059 l 0.7566,1.39215 c 0.0299,0.05883 0.0796,0.11765 0.1294,0.15687 0.0597,0.05882 0.1493,0.07843 0.2489,0.07843 h 0.438 c 0.0995,0 0.1891,-0.02941 0.2489,-0.07843 0.0597,-0.04902 0.0995,-0.10785 0.1194,-0.15687 l 0.7566,-1.39215 v 2.71568 c 0,0.08824 0.0298,0.16667 0.0896,0.2255 0.0597,0.05882 0.1393,0.07843 0.2289,0.07843 h 0.9955 c 0.0896,0 0.1692,-0.02942 0.219,-0.07843 C 49.9602,9.85294 49.99,9.77451 49.99,9.68627 V 4.30392 c 0,-0.08823 -0.0298,-0.16667 -0.0995,-0.21568 z"
       fill="#feffff"
       id="path16" />
  </g>
  <defs
     id="defs23">
    <clipPath
       id="clip0_3541_3928">
      <rect
         width="44"
         height="6"
         fill="#ffffff"
         transform="translate(6,4)"
         id="rect20"
         x="0"
         y="0" />
    </clipPath>
  </defs>
</svg>

<svg width="56" height="14" viewBox="0 0 56 14" fill="none"><rect width="56" height="14" rx="4" fill="#E5AC1A"></rect><g clip-path="url(#clip0_3541_3928)"><path d="M9.89231 4.22549C9.54389 4.07843 9.12579 4 8.64796 4H6.3086C6.219 4 6.14932 4.02941 6.08959 4.08824C6.02986 4.14706 6 4.21569 6 4.30392V9.68627C6 9.77451 6.02986 9.85294 6.08959 9.90196C6.14932 9.96078 6.219 9.9902 6.3086 9.9902H7.43348C7.52308 9.9902 7.60271 9.96078 7.65249 9.91177C7.72217 9.85294 7.75204 9.77451 7.75204 9.68627V7.97059H8.64796C9.12579 7.97059 9.53394 7.90196 9.89231 7.76471C10.2507 7.62745 10.5394 7.40196 10.7385 7.11765C10.9475 6.82353 11.0471 6.45098 11.0471 6.0098C11.0471 5.56863 10.9475 5.18627 10.7385 4.88235C10.5394 4.58824 10.2507 4.36275 9.89231 4.21569V4.22549ZM9.29502 6C9.29502 6.21569 9.23529 6.37255 9.11584 6.48039C8.99638 6.58824 8.82715 6.63725 8.6181 6.63725H7.74208V5.35294H8.6181C8.86697 5.35294 9.04615 5.41176 9.1457 5.52941C9.2552 5.65686 9.30498 5.80392 9.30498 6H9.29502Z" fill="#FEFFFF"></path><path d="M16.5818 7.63725C16.8606 7.4902 17.0995 7.29412 17.2787 7.03922C17.4877 6.7549 17.5873 6.40196 17.5873 5.9902C17.5873 5.36275 17.3583 4.86275 16.9203 4.51961C16.4922 4.17647 15.895 4 15.1583 4H12.8787C12.7891 4 12.7194 4.02941 12.6597 4.08824C12.5999 4.14706 12.5701 4.21569 12.5701 4.30392V9.68627C12.5701 9.77451 12.5999 9.85294 12.6597 9.90196C12.7194 9.96078 12.7891 9.9902 12.8787 9.9902H13.9538C14.0434 9.9902 14.123 9.96078 14.1728 9.90196C14.2325 9.84314 14.2624 9.77451 14.2624 9.68627V7.94118H14.9592L15.885 9.70588C15.9149 9.7549 15.9547 9.81373 16.0144 9.88235C16.0841 9.95098 16.1836 9.9902 16.323 9.9902H17.428C17.5076 9.9902 17.5674 9.96078 17.6271 9.91177C17.6868 9.85294 17.7167 9.78431 17.7167 9.71569C17.7167 9.67647 17.7067 9.62745 17.6769 9.57843L16.5719 7.62745L16.5818 7.63725ZM15.8352 5.97059C15.8352 6.16667 15.7755 6.31373 15.666 6.42157C15.5565 6.52941 15.3873 6.58824 15.1483 6.58824H14.2823V5.35294H15.1483C15.3873 5.35294 15.5664 5.41176 15.666 5.51961C15.7755 5.63725 15.8352 5.78431 15.8352 5.97059Z" fill="#FEFFFF"></path><path d="M23.5801 8.60784H20.9421V7.64706H23.3312C23.4208 7.64706 23.5005 7.61765 23.5602 7.55882C23.6199 7.5 23.6398 7.42157 23.6398 7.34314V6.61765C23.6398 6.52941 23.61 6.46078 23.5602 6.40196C23.5005 6.33333 23.4208 6.30392 23.3312 6.30392H20.9421V5.38235H23.5104C23.6 5.38235 23.6697 5.35294 23.7294 5.29412C23.7892 5.23529 23.819 5.16667 23.819 5.07843V4.30392C23.819 4.21569 23.7892 4.14706 23.7294 4.08824C23.6697 4.02941 23.6 4 23.5104 4H19.6082C19.5186 4 19.4489 4.02941 19.3892 4.08824C19.3294 4.14706 19.2996 4.21569 19.2996 4.30392V9.68627C19.2996 9.77451 19.3294 9.85294 19.3892 9.90196C19.4489 9.96078 19.5186 9.9902 19.6082 9.9902H23.5801C23.6697 9.9902 23.7394 9.96078 23.7991 9.90196C23.8588 9.84314 23.8887 9.77451 23.8887 9.68627V8.91177C23.8887 8.82353 23.8588 8.7549 23.7991 8.69608C23.7394 8.63725 23.6697 8.60784 23.5801 8.60784Z" fill="#FEFFFF"></path><path d="M31.2054 4H30.3095C30.19 4 30.0904 4.03922 30.0208 4.10784C29.9809 4.15686 29.9411 4.19608 29.9212 4.23529L28.5375 6.69608L27.1638 4.2451C27.1638 4.2451 27.104 4.15686 27.0542 4.10784C26.9945 4.03922 26.895 4 26.7755 4H25.8696C25.79 4 25.7203 4.02941 25.6506 4.08824C25.5909 4.14706 25.561 4.21569 25.561 4.30392V9.68627C25.561 9.77451 25.5909 9.85294 25.6506 9.91177C25.7104 9.97059 25.79 9.9902 25.8696 9.9902H26.8751C26.9647 9.9902 27.0443 9.96078 27.0941 9.90196C27.1538 9.84314 27.1837 9.77451 27.1837 9.68627V6.97059L27.9402 8.36274C27.9701 8.42157 28.0199 8.48039 28.0696 8.51961C28.1294 8.57843 28.219 8.59804 28.3185 8.59804H28.7565C28.8561 8.59804 28.9457 8.56863 29.0054 8.51961C29.0651 8.47059 29.1049 8.41176 29.1248 8.36274L29.8814 6.97059V9.68627C29.8814 9.77451 29.9113 9.85294 29.971 9.91177C30.0307 9.97059 30.1104 9.9902 30.1999 9.9902H31.1954C31.285 9.9902 31.3647 9.96078 31.4144 9.91177C31.4841 9.85294 31.514 9.77451 31.514 9.68627V4.30392C31.514 4.21569 31.4841 4.13725 31.4144 4.08824C31.3547 4.02941 31.285 4 31.1954 4H31.2054Z" fill="#FEFFFF"></path><path d="M34.8488 4H33.7239C33.6343 4 33.5546 4.02941 33.5049 4.08824C33.4451 4.14706 33.4153 4.21569 33.4153 4.30392V9.68627C33.4153 9.77451 33.4451 9.85294 33.5049 9.90196C33.5646 9.96078 33.6343 9.9902 33.7239 9.9902H34.8488C34.9384 9.9902 35.018 9.96078 35.0678 9.90196C35.1275 9.84314 35.1574 9.77451 35.1574 9.68627V4.30392C35.1574 4.21569 35.1275 4.14706 35.0678 4.08824C35.008 4.02941 34.9384 4 34.8488 4Z" fill="#FEFFFF"></path><path d="M41.8969 4H40.8118C40.7322 4 40.6625 4.02941 40.5928 4.08824C40.5331 4.14706 40.5032 4.21569 40.5032 4.30392V7.62745C40.5032 7.95098 40.4236 8.19608 40.2643 8.36274C40.105 8.51961 39.896 8.59804 39.6073 8.59804C39.3186 8.59804 39.0896 8.51961 38.9403 8.36274C38.781 8.20588 38.7114 7.95098 38.7114 7.62745V4.30392C38.7114 4.21569 38.6815 4.14706 38.6218 4.08824C38.562 4.02941 38.4923 4 38.4028 4H37.3276C37.238 4 37.1584 4.02941 37.1086 4.08824C37.0489 4.14706 37.019 4.21569 37.019 4.30392V7.63725C37.019 8.16667 37.1285 8.61765 37.3376 8.97059C37.5566 9.31373 37.8652 9.57843 38.2534 9.7549C38.6417 9.92157 39.0996 10 39.6172 10C40.1349 10 40.5928 9.92157 40.981 9.7549C41.3693 9.58824 41.6779 9.32353 41.8969 8.97059C42.1159 8.61765 42.2154 8.16667 42.2154 7.63725V4.30392C42.2154 4.21569 42.1856 4.13725 42.1159 4.08824C42.0561 4.02941 41.9865 4 41.9068 4H41.8969Z" fill="#FEFFFF"></path><path d="M49.9005 4.08824C49.8407 4.02941 49.771 4 49.6815 4H48.7855C48.6561 4 48.5665 4.03922 48.5068 4.10784C48.457 4.15686 48.4272 4.19608 48.4072 4.23529L47.0235 6.69608L45.6398 4.2451C45.6398 4.2451 45.5801 4.15686 45.5303 4.10784C45.4706 4.03922 45.371 4 45.2516 4H44.3457C44.2661 4 44.1864 4.02941 44.1267 4.08824C44.067 4.14706 44.0371 4.21569 44.0371 4.30392V9.68627C44.0371 9.77451 44.067 9.85294 44.1267 9.91177C44.1864 9.97059 44.2661 9.9902 44.3457 9.9902H45.3511C45.4407 9.9902 45.5204 9.96078 45.5701 9.90196C45.6299 9.84314 45.6597 9.77451 45.6597 9.68627V6.97059L46.4163 8.36274C46.4462 8.42157 46.4959 8.48039 46.5457 8.51961C46.6054 8.57843 46.695 8.59804 46.7946 8.59804H47.2326C47.3321 8.59804 47.4217 8.56863 47.4815 8.51961C47.5412 8.47059 47.581 8.41176 47.6009 8.36274L48.3575 6.97059V9.68627C48.3575 9.77451 48.3873 9.85294 48.4471 9.91177C48.5068 9.97059 48.5864 9.9902 48.676 9.9902H49.6715C49.7611 9.9902 49.8407 9.96078 49.8905 9.91177C49.9602 9.85294 49.99 9.77451 49.99 9.68627V4.30392C49.99 4.21569 49.9602 4.13725 49.8905 4.08824H49.9005Z" fill="#FEFFFF"></path></g><defs><clipPath id="clip0_3541_3928"><rect width="44" height="6" fill="white" transform="translate(6 4)"></rect></clipPath></defs></svg>
